libs/shared/images/icons-sharp-light/trash-can-clock.svg

<svg xmlns="http://www.w3.org/2000/svg" viewBox="0 0 576 512"><defs><style>.fa-secondary{opacity:.4}</style></defs><path class="fa-secondary" d="M32 96l384 0 0 96.7c-29.3 2.6-56.6 12.5-80 27.7l0-44.5 0-16-32 0 0 16 0 71.2c-29.8 31.5-48 74-48 120.8c0 59.5 29.6 112.1 74.8 144L32 512 32 96zm80 64l0 16 0 224 0 16 32 0 0-16 0-224 0-16-32 0zm96 0l0 16 0 224 0 16 32 0 0-16 0-224 0-16-32 0z"/><path class="fa-primary" d="M144 0L304 0l16 32 128 0 0 64L0 96 0 32l128 0L144 0zM288 368a144 144 0 1 1 288 0 144 144 0 1 1 -288 0zm160-80l-32 0 0 16 0 64 0 16 16 0 48 0 16 0 0-32-16 0-32 0 0-48 0-16z"/></svg>

<svg xmlns="http://www.w3.org/2000/svg" viewBox="0 0 576 512"><path d="M160 0h-8.9l-4.7 7.5L111.1 64H64 32 0V96H32V480v32H64 330.8c-12.9-9.1-24.5-19.9-34.6-32H64V96H384V198.6c10.3-2.9 21-4.9 32-5.9V96h32V64H416 384 336.9L301.6 7.5 296.9 0H288 160zM304 247.2c9.6-10.1 20.3-19.1 32-26.7V176 160H304v16 71.2zM299.1 64H148.9l20-32H279.1l20 32zM144 176V160H112v16V400v16h32V400 176zm96 0V160H208v16V400v16h32V400 176zm192 80a112 112 0 1 1 0 224 112 112 0 1 1 0-224zm0 256a144 144 0 1 0 0-288 144 144 0 1 0 0 288zm16-224H416v16 64 16h16 48 16V352H480 448V304 288z"/></svg>
